ufans-frontend-package/public/assets/images/new-home/icon/video-post-1.svg

<svg width="24" height="24" viewBox="0 0 24 24" fill="none" xmlns="http://www.w3.org/2000/svg">
<path d="M23.0625 14.5781C23.5803 14.5781 24 14.1584 24 13.6406V5.67188C24 3.60413 22.3177 1.92188 20.25 1.92188H3.75C1.68225 1.92188 0 3.60413 0 5.67188V18.3281C0 20.3959 1.68225 22.0781 3.75 22.0781H20.25C22.3177 22.0781 24 20.3959 24 18.3281C24 17.8103 23.5803 17.3906 23.0625 17.3906C22.5447 17.3906 22.125 17.8103 22.125 18.3281C22.125 19.362 21.2839 20.2031 20.25 20.2031H3.75C2.71613 20.2031 1.875 19.362 1.875 18.3281V5.67188C1.875 4.638 2.71613 3.79688 3.75 3.79688H20.25C21.2839 3.79688 22.125 4.638 22.125 5.67188V13.6406C22.125 14.1584 22.5447 14.5781 23.0625 14.5781Z" fill="#6661E7"/>
<path d="M4.54688 7.54688C5.06464 7.54688 5.48438 7.12714 5.48438 6.60938C5.48438 6.09161 5.06464 5.67188 4.54688 5.67188C4.02911 5.67188 3.60938 6.09161 3.60938 6.60938C3.60938 7.12714 4.02911 7.54688 4.54688 7.54688Z" fill="#6661E7"/>
<path d="M8.29688 7.54688C8.81464 7.54688 9.23438 7.12714 9.23438 6.60938C9.23438 6.09161 8.81464 5.67188 8.29688 5.67188C7.77911 5.67188 7.35938 6.09161 7.35938 6.60938C7.35938 7.12714 7.77911 7.54688 8.29688 7.54688Z" fill="#6661E7"/>
<path d="M12.0469 7.54688C12.5646 7.54688 12.9844 7.12714 12.9844 6.60938C12.9844 6.09161 12.5646 5.67188 12.0469 5.67188C11.5291 5.67188 11.1094 6.09161 11.1094 6.60938C11.1094 7.12714 11.5291 7.54688 12.0469 7.54688Z" fill="#6661E7"/>
<path d="M15.7969 7.54688C16.3146 7.54688 16.7344 7.12714 16.7344 6.60938C16.7344 6.09161 16.3146 5.67188 15.7969 5.67188C15.2791 5.67188 14.8594 6.09161 14.8594 6.60938C14.8594 7.12714 15.2791 7.54688 15.7969 7.54688Z" fill="#6661E7"/>
<path d="M19.5469 7.54688C20.0646 7.54688 20.4844 7.12714 20.4844 6.60938C20.4844 6.09161 20.0646 5.67188 19.5469 5.67188C19.0291 5.67188 18.6094 6.09161 18.6094 6.60938C18.6094 7.12714 19.0291 7.54688 19.5469 7.54688Z" fill="#6661E7"/>
<path d="M4.54688 18.3281C5.06464 18.3281 5.48438 17.9084 5.48438 17.3906C5.48438 16.8729 5.06464 16.4531 4.54688 16.4531C4.02911 16.4531 3.60938 16.8729 3.60938 17.3906C3.60938 17.9084 4.02911 18.3281 4.54688 18.3281Z" fill="#6661E7"/>
<path d="M8.29688 18.3281C8.81464 18.3281 9.23438 17.9084 9.23438 17.3906C9.23438 16.8729 8.81464 16.4531 8.29688 16.4531C7.77911 16.4531 7.35938 16.8729 7.35938 17.3906C7.35938 17.9084 7.77911 18.3281 8.29688 18.3281Z" fill="#6661E7"/>
<path d="M12.0469 18.3281C12.5646 18.3281 12.9844 17.9084 12.9844 17.3906C12.9844 16.8729 12.5646 16.4531 12.0469 16.4531C11.5291 16.4531 11.1094 16.8729 11.1094 17.3906C11.1094 17.9084 11.5291 18.3281 12.0469 18.3281Z" fill="#6661E7"/>
<path d="M15.7969 18.3281C16.3146 18.3281 16.7344 17.9084 16.7344 17.3906C16.7344 16.8729 16.3146 16.4531 15.7969 16.4531C15.2791 16.4531 14.8594 16.8729 14.8594 17.3906C14.8594 17.9084 15.2791 18.3281 15.7969 18.3281Z" fill="#6661E7"/>
<path d="M19.5469 18.3281C20.0646 18.3281 20.4844 17.9084 20.4844 17.3906C20.4844 16.8729 20.0646 16.4531 19.5469 16.4531C19.0291 16.4531 18.6094 16.8729 18.6094 17.3906C18.6094 17.9084 19.0291 18.3281 19.5469 18.3281Z" fill="#6661E7"/>
</svg>

<svg xmlns="http://www.w3.org/2000/svg" width="24" height="20.156" viewBox="0 0 24 20.156">
  <g id="video-post-1" transform="translate(0 -1.922)">
    <path id="Path_1" data-name="Path 1" d="M23.063,14.578A.937.937,0,0,0,24,13.641V5.672a3.754,3.754,0,0,0-3.75-3.75H3.75A3.754,3.754,0,0,0,0,5.672V18.328a3.754,3.754,0,0,0,3.75,3.75h16.5A3.754,3.754,0,0,0,24,18.328a.938.938,0,0,0-1.875,0A1.877,1.877,0,0,1,20.25,20.2H3.75a1.877,1.877,0,0,1-1.875-1.875V5.672A1.877,1.877,0,0,1,3.75,3.8h16.5a1.877,1.877,0,0,1,1.875,1.875v7.969a.937.937,0,0,0,.938.934Z" fill="#e44499"/>
    <path id="Path_2" data-name="Path 2" d="M4.547,7.547A.938.938,0,1,0,3.61,6.61a.938.938,0,0,0,.937.937Z" fill="#e44499"/>
    <path id="Path_3" data-name="Path 3" d="M8.3,7.547a.938.938,0,1,0-.937-.937A.938.938,0,0,0,8.3,7.547Z" fill="#e44499"/>
    <path id="Path_4" data-name="Path 4" d="M12.047,7.547a.938.938,0,1,0-.937-.937A.938.938,0,0,0,12.047,7.547Z" fill="#e44499"/>
    <path id="Path_5" data-name="Path 5" d="M15.8,7.547a.938.938,0,1,0-.937-.937.938.938,0,0,0,.937.937Z" fill="#e44499"/>
    <path id="Path_6" data-name="Path 6" d="M19.547,7.547a.938.938,0,1,0-.937-.937A.938.938,0,0,0,19.547,7.547Z" fill="#e44499"/>
    <path id="Path_7" data-name="Path 7" d="M4.547,18.328a.938.938,0,1,0-.937-.937.938.938,0,0,0,.937.937Z" fill="#e44499"/>
    <path id="Path_8" data-name="Path 8" d="M8.3,18.328a.938.938,0,1,0-.937-.937.938.938,0,0,0,.937.937Z" fill="#e44499"/>
    <path id="Path_9" data-name="Path 9" d="M12.047,18.328a.938.938,0,1,0-.937-.937.938.938,0,0,0,.937.937Z" fill="#e44499"/>
    <path id="Path_10" data-name="Path 10" d="M15.8,18.328a.938.938,0,1,0-.937-.937.938.938,0,0,0,.937.937Z" fill="#e44499"/>
    <path id="Path_11" data-name="Path 11" d="M19.547,18.328a.938.938,0,1,0-.937-.937.938.938,0,0,0,.937.937Z" fill="#e44499"/>
  </g>
</svg>
